images/portal/5203.svg

<?xml version="1.0" standalone="no"?><!DOCTYPE svg PUBLIC "-//W3C//DTD SVG 1.1//EN" "http://www.w3.org/Graphics/SVG/1.1/DTD/svg11.dtd"><svg xmlns:xlink="http://www.w3.org/1999/xlink" version="1.1" class="highcharts-root" style="font-family:arial;font-size:12px;" xmlns="http://www.w3.org/2000/svg" width="485" height="415"><desc>Created with Highstock 5.0.14</desc><defs><clipPath id="highcharts-okqhdqw-6"><rect x="0" y="0" width="416" height="265" fill="none"></rect></clipPath><clipPath id="highcharts-okqhdqw-7"><rect x="0" y="0" width="416" height="265" fill="none"></rect></clipPath></defs><rect fill="#fbfbfb" class="highcharts-background" x="0" y="0" width="485" height="415" rx="0" ry="0"></rect><rect fill="none" class="highcharts-plot-background" x="59" y="75" width="416" height="265"></rect><g class="highcharts-pane-group"></g><g class="highcharts-grid highcharts-xaxis-grid "><path fill="none" class="highcharts-grid-line" d="M 127.5 75 L 127.5 340" opacity="1"></path><path fill="none" class="highcharts-grid-line" d="M 197.5 75 L 197.5 340" opacity="1"></path><path fill="none" class="highcharts-grid-line" d="M 266.5 75 L 266.5 340" opacity="1"></path><path fill="none" class="highcharts-grid-line" d="M 335.5 75 L 335.5 340" opacity="1"></path><path fill="none" class="highcharts-grid-line" d="M 405.5 75 L 405.5 340" opacity="1"></path><path fill="none" class="highcharts-grid-line" d="M 474.5 75 L 474.5 340" opacity="1"></path><path fill="none" class="highcharts-grid-line" d="M 58.5 75 L 58.5 340" opacity="1"></path></g><g class="highcharts-grid highcharts-yaxis-grid "><path fill="none" stroke="#B9CFD7" stroke-width="0.5" class="highcharts-grid-line" d="M 59 340.25 L 475 340.25" opacity="1"></path><path fill="none" stroke="#B9CFD7" stroke-width="0.5" class="highcharts-grid-line" d="M 59 252.25 L 475 252.25" opacity="1"></path><path fill="none" stroke="#B9CFD7" stroke-width="0.5" class="highcharts-grid-line" d="M 59 163.25 L 475 163.25" opacity="1"></path><path fill="none" stroke="#B9CFD7" stroke-width="0.5" class="highcharts-grid-line" d="M 59 74.75 L 475 74.75" opacity="1"></path></g><rect fill="none" class="highcharts-plot-border" x="59" y="75" width="416" height="265"></rect><g class="highcharts-axis highcharts-xaxis "><path fill="none" class="highcharts-tick" stroke="#FFFFFF" stroke-width="1" d="M 127.5 340 L 127.5 350" opacity="1"></path><path fill="none" class="highcharts-tick" stroke="#FFFFFF" stroke-width="1" d="M 197.5 340 L 197.5 350" opacity="1"></path><path fill="none" class="highcharts-tick" stroke="#FFFFFF" stroke-width="1" d="M 266.5 340 L 266.5 350" opacity="1"></path><path fill="none" class="highcharts-tick" stroke="#FFFFFF" stroke-width="1" d="M 335.5 340 L 335.5 350" opacity="1"></path><path fill="none" class="highcharts-tick" stroke="#FFFFFF" stroke-width="1" d="M 405.5 340 L 405.5 350" opacity="1"></path><path fill="none" class="highcharts-tick" stroke="#FFFFFF" stroke-width="1" d="M 475.5 340 L 475.5 350" opacity="1"></path><path fill="none" class="highcharts-tick" stroke="#FFFFFF" stroke-width="1" d="M 58.5 340 L 58.5 350" opacity="1"></path><path fill="none" class="highcharts-axis-line" stroke="#B9CFD7" stroke-width="0.5" d="M 59 340.25 L 475 340.25"></path></g><g class="highcharts-axis highcharts-yaxis "><path fill="none" class="highcharts-axis-line" d="M 59 75 L 59 340"></path></g><g class="highcharts-series-group"><g class="highcharts-series highcharts-series-0 highcharts-column-series highcharts-color-undefined " transform="translate(59,75) scale(1 1)" clip-path="url(#highcharts-okqhdqw-7)"><rect x="27" y="65" width="15" height="3" fill="#2f656b" class="highcharts-point"></rect><rect x="97" y="66" width="15" height="5" fill="#2f656b" class="highcharts-point"></rect><rect x="166" y="59" width="15" height="4" fill="#2f656b" class="highcharts-point"></rect><rect x="235" y="54" width="15" height="4" fill="#2f656b" class="highcharts-point"></rect><rect x="305" y="44" width="15" height="4" fill="#2f656b" class="highcharts-point"></rect><rect x="374" y="50" width="15" height="3" fill="#2f656b" class="highcharts-point"></rect></g><g class="highcharts-markers highcharts-series-0 highcharts-column-series highcharts-color-undefined " transform="translate(59,75) scale(1 1)" clip-path="none"></g><g class="highcharts-series highcharts-series-1 highcharts-column-series highcharts-color-undefined " transform="translate(59,75) scale(1 1)" clip-path="url(#highcharts-okqhdqw-7)"><rect x="27" y="68" width="15" height="198" fill="#b00000" class="highcharts-point"></rect><rect x="97" y="71" width="15" height="195" fill="#b00000" class="highcharts-point"></rect><rect x="166" y="63" width="15" height="203" fill="#b00000" class="highcharts-point"></rect><rect x="235" y="58" width="15" height="208" fill="#b00000" class="highcharts-point"></rect><rect x="305" y="48" width="15" height="218" fill="#b00000" class="highcharts-point"></rect><rect x="374" y="53" width="15" height="213" fill="#b00000" class="highcharts-point"></rect></g><g class="highcharts-markers highcharts-series-1 highcharts-column-series highcharts-color-undefined " transform="translate(59,75) scale(1 1)" clip-path="none"></g></g><text x="10" text-anchor="start" class="highcharts-title" style="color:#000000;font-size:14px;font-weight:bold;fill:#000000;" y="21"><tspan>Anzahl Wegpendler aus Basel-Stadt nach Ziel</tspan></text><g class="highcharts-legend" transform="translate(50,30)"><rect fill="none" class="highcharts-legend-box" rx="0" ry="0" x="0" y="0" width="208" height="39" visibility="visible"></rect><g><g><g class="highcharts-legend-item highcharts-column-series highcharts-color-undefined highcharts-series-0" transform="translate(8,3)"><text x="21" style="color:#333333;font-size:12px;font-weight:normal;cursor:pointer;fill:#333333;" text-anchor="start" y="15"><tspan>Ins Ausland</tspan></text><rect x="2" y="4" width="12" height="12" fill="#2f656b" class="highcharts-point"></rect></g><g class="highcharts-legend-item highcharts-column-series highcharts-color-undefined highcharts-series-1" transform="translate(8,17)"><text x="21" y="15" style="color:#333333;font-size:12px;font-weight:normal;cursor:pointer;fill:#333333;" text-anchor="start"><tspan>In die Schweiz</tspan></text><rect x="2" y="4" width="12" height="12" fill="#b00000" class="highcharts-point"></rect></g></g></g></g><g class="highcharts-axis-labels highcharts-xaxis-labels "><text x="93.66666666666666" style="color:#000000;cursor:default;font-size:11px;fill:#000000;" text-anchor="middle" transform="translate(0,0)" y="359" opacity="1">2010</text><text x="163" style="color:#000000;cursor:default;font-size:11px;fill:#000000;" text-anchor="middle" transform="translate(0,0)" y="359" opacity="1">2011</text><text x="232.33333333333334" style="color:#000000;cursor:default;font-size:11px;fill:#000000;" text-anchor="middle" transform="translate(0,0)" y="359" opacity="1">2012</text><text x="301.66666666666663" style="color:#000000;cursor:default;font-size:11px;fill:#000000;" text-anchor="middle" transform="translate(0,0)" y="359" opacity="1">2013</text><text x="371" style="color:#000000;cursor:default;font-size:11px;fill:#000000;" text-anchor="middle" transform="translate(0,0)" y="359" opacity="1">2014</text><text x="440.3333333333333" style="color:#000000;cursor:default;font-size:11px;fill:#000000;" text-anchor="middle" transform="translate(0,0)" y="359" opacity="1">2015</text></g><g class="highcharts-axis-labels highcharts-yaxis-labels "><text x="44" style="color:#000000;cursor:default;font-size:11px;fill:#000000;" text-anchor="end" transform="translate(0,0)" y="345" opacity="1"><tspan>0</tspan></text><text x="44" style="color:#000000;cursor:default;font-size:11px;fill:#000000;" text-anchor="end" transform="translate(0,0)" y="256" opacity="1"><tspan>10 000</tspan></text><text x="44" style="color:#000000;cursor:default;font-size:11px;fill:#000000;" text-anchor="end" transform="translate(0,0)" y="168" opacity="1"><tspan>20 000</tspan></text><text x="44" style="color:#000000;cursor:default;font-size:11px;fill:#000000;" text-anchor="end" transform="translate(0,0)" y="80" opacity="1"><tspan>30 000</tspan></text></g><text x="10" class="highcharts-credits" text-anchor="start" style="cursor:default;color:#000000;font-size:10px;fill:#000000;" y="400"><tspan>Quelle: Bundesamt für Statistik BFS, Strukturerhebung (SE)</tspan></text></svg>

<svg class="highcharts-root" xmlns="http://www.w3.org/2000/svg" width="485" height="415" font-family="arial" font-size="12">
    <defs>
        <clipPath id="a">
            <path fill="none" d="M0 0h416v265H0z"/>
        </clipPath>
    </defs>
    <rect fill="#fbfbfb" class="highcharts-background" width="485" height="415" rx="0" ry="0"/>
    <path fill="none" class="highcharts-plot-background" d="M59 75h416v265H59z"/>
    <g class="highcharts-grid highcharts-xaxis-grid">
        <path fill="none" class="highcharts-grid-line" d="M127.5 75v265m70-265v265m69-265v265m69-265v265m70-265v265m69-265v265M58.5 75v265"/>
    </g>
    <g class="highcharts-grid highcharts-yaxis-grid">
        <path fill="none" stroke="#B9CFD7" stroke-width=".5" class="highcharts-grid-line" d="M59 340.25h416m-416-88h416m-416-89h416M59 74.75h416"/>
    </g>
    <path fill="none" class="highcharts-plot-border" d="M59 75h416v265H59z"/>
    <g class="highcharts-axis highcharts-xaxis">
        <path fill="none" class="highcharts-tick" stroke="#FFF" d="M127.5 340v10m70-10v10m69-10v10m69-10v10m70-10v10m70-10v10m-417-10v10"/>
        <path fill="none" class="highcharts-axis-line" stroke="#B9CFD7" stroke-width=".5" d="M59 340.25h416"/>
    </g>
    <g class="highcharts-axis highcharts-yaxis">
        <path fill="none" class="highcharts-axis-line" d="M59 75v265"/>
    </g>
    <g class="highcharts-series-group">
        <g class="highcharts-series highcharts-series-0 highcharts-column-series highcharts-color-undefined" transform="translate(59 75)" clip-path="url(#a)">
            <path fill="#2f656b" class="highcharts-point" d="M27 65h15v3H27zm70 1h15v5H97zm69-7h15v4h-15zm69-5h15v4h-15zm70-10h15v4h-15zm69 6h15v3h-15z"/>
        </g>
        <g class="highcharts-series highcharts-series-1 highcharts-column-series highcharts-color-undefined" transform="translate(59 75)" clip-path="url(#a)">
            <path fill="#b00000" class="highcharts-point" d="M27 68h15v198H27zm70 3h15v195H97zm69-8h15v203h-15zm69-5h15v208h-15zm70-10h15v218h-15zm69 5h15v213h-15z"/>
        </g>
    </g>
    <text x="10" class="highcharts-title" y="21" color="#000" font-size="14" font-weight="700">
        <tspan>Anzahl Wegpendler aus Basel-Stadt nach Ziel</tspan>
    </text>
    <g class="highcharts-legend" transform="translate(50 30)">
        <rect fill="none" class="highcharts-legend-box" rx="0" ry="0" width="208" height="39"/>
        <g class="highcharts-legend-item highcharts-column-series highcharts-color-undefined highcharts-series-0">
            <text x="21" y="15" color="#333" font-weight="400" cursor="pointer" fill="#333" transform="translate(8 3)">
                <tspan>Ins Ausland</tspan>
            </text>
            <path fill="#2f656b" class="highcharts-point" d="M10 7h12v12H10z"/>
        </g>
        <g class="highcharts-legend-item highcharts-column-series highcharts-color-undefined highcharts-series-1">
            <text x="21" y="15" color="#333" font-weight="400" cursor="pointer" fill="#333" transform="translate(8 17)">
                <tspan>In die Schweiz</tspan>
            </text>
            <path fill="#b00000" class="highcharts-point" d="M10 21h12v12H10z"/>
        </g>
    </g>
    <g class="highcharts-axis-labels highcharts-xaxis-labels" text-anchor="middle" color="#000" cursor="default" font-size="11">
        <text x="93.667" y="359">
            2010
        </text>
        <text x="163" y="359">
            2011
        </text>
        <text x="232.333" y="359">
            2012
        </text>
        <text x="301.667" y="359">
            2013
        </text>
        <text x="371" y="359">
            2014
        </text>
        <text x="440.333" y="359">
            2015
        </text>
    </g>
    <g class="highcharts-axis-labels highcharts-yaxis-labels" text-anchor="end" color="#000" cursor="default" font-size="11">
        <text x="44" y="345">
            <tspan>0</tspan>
        </text>
        <text x="44" y="256">
            <tspan>10 000</tspan>
        </text>
        <text x="44" y="168">
            <tspan>20 000</tspan>
        </text>
        <text x="44" y="80">
            <tspan>30 000</tspan>
        </text>
    </g>
    <text x="10" class="highcharts-credits" y="400" cursor="default" color="#000" font-size="10">
        <tspan>Quelle: Bundesamt für Statistik BFS, Strukturerhebung (SE)</tspan>
    </text>
</svg>
